**kern	**kern	**kern	**kern	**harm
*staff4	*staff3	*staff2	*staff1	*staff1
=1-	=1-	=1-	=1-	=1-
*clefF4	*clefF4	*clefG2	*clefG2	*
*k[f#]	*k[f#]	*k[f#]	*k[f#]	*
*M3/8	*M3/8	*M3/8	*M3/8	*
*	*	*	*MM60	*
*G:	*G:	*G:	*G:	*G:
8GG/	8D\	8B/	8r	I
8r	8r	8r	8d/L	.
8r	8r	8r	8B/J	.
=2	=2	=2	=2	=2
8r	8r	8r	8G/L	.
8r	8r	8r	8b/	.
8G\	8B\	8d/	8g/J	.
=3	=3	=3	=3	=3
8r	8r	8r	8g/L	.
8A\L	8c\L	8d/L	8f#/	V43
8A\J	8c\J	8d/J	8f#/J	.
=4	=4	=4	=4	=4
8A\	8c\	8d/	8f#/	.
8r	8r	8r	8r	.
8r	8r	8r	8r	.
=5	=5	=5	=5	=5
8D\	8F#\L	8A/	8c/	V7
8r	8c\	8r	8r	.
8r	8A\J	8r	8r	.
=6	=6	=6	=6	=6
8r	8F#\	8r	8r	.
8r	8r	8cc\L	8ee\L	.
*	*clefG2	*	*	*
8F#\	8d/	8a\J	8cc\J	V65
=7	=7	=7	=7	=7
!!linebreak:original
8r	8r	8f#/L	8a#/L	I
8G\L	8d/L	8g/	8b/	.
8G\J	8d/J	8g/J	8b/J	.
=8	=8	=8	=8	=8
8G\	8d/	8g/	8b\	.
8r	8r	8r	8r	.
8r	8r	8r	8r	.
=9	=9	=9	=9	=9
8Fn\L	8fn/L	8r	8r	V65/IV
8D\	8d/	8g/L	8gg\L	.
8BB\J	8B/J	8g/J	8gg\J	.
=10	=10	=10	=10	=10
8G\L	8g/L	8r	8r	IV
8E\	8e/	8g/L	8gg\L	.
8C\J	8c/J	8g/J	8gg\J	.
=11	=11	=11	=11	=11
8B-\L	8b-/L	8r	8r	viio7/V
8G\	8g/	8g/L	8gg\L	.
8C#\J	8c#/J	8g/J	8gg\J	.
=12	=12	=12	=12	=12
4.D\	8d\L	4.g/	8bb\L	C64
*	*clefF4	*	*	*
.	8B\	.	8gg\	.
.	8B\J	.	8dd\J	.
=13	=13	=13	=13	=13
4.DD/	8A\L	4.f#/	8cc/L	V7
.	8c\	.	8a/	.
.	8c\J	.	8f#/J	.
=14	=14	=14	=14	=14
!!linebreak:original
8G\L	16B/LL	8f#/L	8ff#\L	I
*	*clefG2	*	*	*
.	16d/	.	.	.
8G\	16B/	8g/J	8gg\J	.
.	16d/	.	.	.
8G\J	16B/	8r	8r	.
.	16d/JJ	.	.	.
=15	=15	=15	=15	=15
*	*clefF4	*	*	*
8G\L	16B\LL	8a#/L	8aa#\L	I
.	16d\	.	.	.
8G\	16B\	8b/J	8bb\J	.
.	16d\	.	.	.
8G\J	16B\	8r	8r	.
*	*clefG2	*	*	*
.	16d\JJ	.	.	.
=16	=16	=16	=16	=16
8G\L	16B/LL	4dd\	4ddd\	I
.	16d/	.	.	.
8G\	16B/	.	.	.
.	16d/	.	.	.
8G\J	16B/	32cc/LLL	32ccc\LLL	.
.	.	32b/	32bb\	.
.	16d/JJ	32a/	32aa\	.
.	.	32g/JJJ	32gg\JJJ	.
=17	=17	=17	=17	=17
8A\L	16c/LL	8g/L	8gg\L	V43
.	16d/	.	.	.
8A\	16c/	8f#/	8ff#\	.
.	16d/	.	.	.
8A\J	16c/	8f#/J	8ff#\J	.
.	16d/JJ	.	.	.
=18	=18	=18	=18	=18
!!pagebreak:original
*	*clefF4	*	*	*
8F#\L	16A\LL	8e-/L	8ee-\L	V65
.	16c\	.	.	.
8F#\	16A\	8d/J	8dd\J	.
.	16c\	.	.	.
8F#\J	16A\	8r	8r	.
*	*clefG2	*	*	*
.	16c\JJ	.	.	.
=19	=19	=19	=19	=19
8F#\L	16A/LL	8g#/L	8gg#\L	.
.	16c/	.	.	.
8F#\	16A/	8a/J	8aa\J	.
.	16c/	.	.	.
*	*clefF4	*	*	*
8F#\J	16A/	8r	8r	.
.	16c/JJ	.	.	.
=20	=20	=20	=20	=20
8F#\L	16A/LL	4ee\	4eee\	.
.	16c/	.	.	.
8F#\	16A/	.	.	.
*	*clefG2	*	*	*
.	16c/	.	.	.
8F#\J	16A/	32dd\LLL	32ddd\LLL	.
.	.	32cc\	32ccc\	.
.	16d/JJ	32b\	32bb\	.
.	.	32a\JJJ	32aa\JJJ	.
=21	=21	=21	=21	=21
8G\L	16B\LL	8cc\L	8ccc\L	I
.	16d\	.	.	.
*	*clefF4	*	*	*
8G\	16B\	8b\	8bb\	.
.	16d\	.	.	.
8G\J	16B\	8b\J	8bb\J	.
.	16d\JJ	.	.	.
=22	=22	=22	=22	=22
!!linebreak:original
8G\	8B\	16g/LL	4bb\	.
.	.	16b/	.	.
8r	8r	16g/	.	.
.	.	16b/	.	.
*	*clefG2	*	*	*
8r	8g/	16g/	32aa\LLL	.
.	.	.	32gg\	.
.	.	16b/JJ	32ff#\	.
.	.	.	32ee\JJJ	.
=23	=23	=23	=23	=23
4.r	8f#/L	16a/LL	8ee\L	V43/vi
.	.	16b/	.	.
.	8f#/	16a/	8dd#\	.
.	.	16b/	.	.
.	8f#/J	16a/	8dd#\J	.
.	.	16b/JJ	.	.
=24	=24	=24	=24	=24
4.r	8e/L	16g/LL	4bb\	vi
.	.	16b/	.	.
.	8e/	16g/	.	.
.	.	16b/	.	.
.	8e/J	16g/	32aa\LLL	.
.	.	.	32gg\	.
.	.	16b/JJ	32ff#\	.
.	.	.	32ee\JJJ	.
=25	=25	=25	=25	=25
*D:	*D:	*D:	*D:	*D:
4.r	8e/L	16g/LL	8dd\L	V43
.	.	16a/	.	.
.	8e/	16g/	8cc#\	.
.	.	16a/	.	.
.	8e/J	16g/	8cc#\J	.
.	.	16a/JJ	.	.
=26	=26	=26	=26	=26
4.r	8f#/L	8.a\L	16ee\LL	I
.	.	.	16dd\	.
.	8c#/	.	16ff#\	.
.	.	16ee\L	16ee\	.
.	8d/J	16ee\	16gg\	.
.	.	16dd\JJ	16ff#\JJ	.
=27	=27	=27	=27	=27
!!linebreak:original
4.r	4.A/	8dd\L	8ff#\L	V
.	.	8cc#\	8ee\	.
.	.	8cc#\J	8ee\J	.
=28	=28	=28	=28	=28
8G\L	8g/L	8r	8r	V7
8E\	8e/	8a/L	8aa\L	.
8C#\J	8c#/J	8a/J	8aa\J	.
=29	=29	=29	=29	=29
8A\L	8a/L	8r	8r	I
8F#\	8f#/	8a/L	8aa\L	.
8D\J	8d/J	8a/J	8aa\J	.
=30	=30	=30	=30	=30
*clefG2	*	*	*	*
8c/L	8cc\L	8r	8r	V7/V/V
8B/	8b\	8a\L	8aa\L	.
8d#/J	8b\J	8ff#\J	8aa\J	.
=31	=31	=31	=31	=31
8e/L	8b/L	8ee\L	8gg#\L	V/V
8c#/	8a/	8ee\	8ggn\	V65
8d/J	8a/J	8dd\J	8ff#\J	I
=32	=32	=32	=32	=32
8G/L	8g/L	8b/L	8ee\L	ii6
8A/	8f#/	8a/	8dd\	C64
8A/J	8e/J	8g/J	8cc#\J	V7
=33	=33	=33	=33	=33
!!pagebreak:original
8f#/L	8a/L	8dd\L	8ddd\L	I6
8e/	8g/	8cc#\	8ccc#\	V43
8d/J	8f#/J	8b\J	8bb\J	I
=34	=34	=34	=34	=34
8c#/L	8e/L	8a#/L	8aa#\L	viio6/vi
8d/	8f#/	8b/	8bb\	vi6
*clefF4	*	*	*	*
8B/J	8d/J	8g#/J	8gg#\J	viio6/V
=35	=35	=35	=35	=35
8c#\L	8e/L	8a/L	8aa\L	V6
8A#\	8c#/	8g/	8gg\	viio7/vi
8B\J	8d/J	8f#/J	8ff#\J	vi
=36	=36	=36	=36	=36
4.G\	4B/	8e/L	8ee\L	ii6
.	.	8g/	8gg\	.
.	8g/	8b/J	8bb\J	.
=37	=37	=37	=37	=37
4.A\	4f#/	4a/	4dd\	C64
.	8c#/	8g/	16ff#\LL	V7
.	.	.	16ee\JJ	.
=38	=38	=38	=38	=38
4D\	16d/LL	4.ff#\	4.ddd\	I
.	16dd/	.	.	.
.	16d/	.	.	.
.	16dd/	.	.	.
8r	16d/	.	.	.
.	16dd/JJ	.	.	.
=39	=39	=39	=39	=39
!!linebreak:original
4.r	16d/LL	16aa\LL	16ccc#\LL	IV64
.	16dd/	16gg\J	16bb\J	.
.	16d/	8gg\J	8bb\J	.
.	16dd/	.	.	.
.	16d/	8r	8r	.
.	16dd/JJ	.	.	.
=40	=40	=40	=40	=40
4.G\	16d/LL	4.B/	4.r	IV
.	16dd/	.	.	.
.	16d/	.	.	.
.	16dd/	.	.	.
.	16d/	.	.	.
.	16dd/JJ	.	.	.
=41	=41	=41	=41	=41
16E#\LL	16d/LL	16G#/LL	4.r	I6
16F#\J	16dd/	16A/J	.	.
8F#\J	16d/	8A/J	.	.
.	16dd/	.	.	.
8r	16d/	8r	.	.
.	16dd/JJ	.	.	.
=42	=42	=42	=42	=42
4.r	16d/LL	4.ff#\	4.ddd\	I
.	16dd/	.	.	.
.	16d/	.	.	.
.	16dd/	.	.	.
.	16d/	.	.	.
.	16dd/JJ	.	.	.
=43	=43	=43	=43	=43
4.r	16d/LL	16aa\LL	16ccc#\LL	IV64
.	16dd/	16gg\J	16bb\J	.
.	16d/	8gg\J	8bb\J	.
.	16dd/	.	.	.
.	16d/	8r	8r	.
.	16dd/JJ	.	.	.
=44	=44	=44	=44	=44
!!linebreak:original
4.G\	16d/LL	4.B/	4.r	IV
.	16dd/	.	.	.
.	16d/	.	.	.
.	16dd/	.	.	.
.	16d/	.	.	.
.	16dd/JJ	.	.	.
=45	=45	=45	=45	=45
16E#\LL	16d/LL	16G#/LL	4.r	I6
16F#\J	16dd/	16A/J	.	.
8F#\J	16d/	8A/J	.	.
.	16dd/	.	.	.
8r	16d/	8r	.	.
.	16dd/JJ	.	.	.
=46	=46	=46	=46	=46
4.r	16d/LL	16ee\LL	16ddd\LL	I
.	16dd/	16gg\J	16ccc#\J	.
.	16d/	8gg\J	8ccc#\J	.
.	16dd/	.	.	.
.	16d/	8r	8r	.
.	16dd/JJ	.	.	.
=47	=47	=47	=47	=47
4.r	16d/LL	16gg\LL	16eee\LL	.
.	16dd/	16ff#\J	16ddd\J	.
.	16d/	8ff#\J	8ddd\J	.
.	16dd/	.	.	.
.	16d/	8r	8r	.
.	16dd/JJ	.	.	.
=48	=48	=48	=48	=48
8c\L	16d/LL	4.r	4.r	I6
.	16dd/	.	.	.
8A\	16d/	.	.	.
.	16dd/	.	.	.
8F#\J	16d/	.	.	.
.	16dd/JJ	.	.	.
=49	=49	=49	=49	=49
4.G\	4d/	8bb\L	8ddd\L	IV
.	.	8gg\	8bb\	.
.	8e/	16b\L	16gg\L	ii6
.	.	16g\JJ	16ee\JJ	.
=50	=50	=50	=50	=50
!!pagebreak:original
4A\	8f#/L	4f#/	4dd\	C64
.	8a/	.	.	.
8AA/	8c#/J	16a/LL	16ff#\LL	V7
.	.	16g/JJ	16ee\JJ	.
=51	=51	=51	=51	=51
4D\	16d/LL	4f#/	16dd\LL	I
.	16A/	.	16a\	.
.	16f#/	.	16ff#\	.
.	16A/	.	16a\	.
8r	16a/	8a/	16aa\	.
.	16A/JJ	.	16a\JJ	.
=52	=52	=52	=52	=52
4.r	16g\LL	8g/L	16gg\LL	V7
*	*clefF4	*	*	*
.	16A\	.	16a\	.
.	16e\	8e/	16ee\	.
.	16A\	.	16a\	.
.	16c#\	8c#/J	16cc#\	.
.	16A\JJ	.	16a\JJ	.
=53	=53	=53	=53	=53
16D\LL	8d\L	16d/LL	16dd\LL	I64
16AA\	.	16A/	16a\	.
16F#\	8F#\	16f#/	16ff#\	.
16AA\	.	16A/	16a\	.
16A\	8A\J	16a/	16aa\	.
16AA\JJ	.	16A/JJ	16a\JJ	.
=54	=54	=54	=54	=54
16G\LL	8G\L	16g\LL	16gg\LL	V7
*	*	*clefF4	*	*
16AA\	.	16A\	16a\	.
16E\	8E\	16e\	16ee\	.
16AA\	.	16A\	16a\	.
16C#\	8C#\J	16c#\	16cc#\	.
16AA\JJ	.	16A\JJ	16a\JJ	.
=55	=55	=55	=55	=55
!!linebreak:original
*	*	*clefG2	*	*
16D/LL	16D\LL	8d/L	16dd/LL	I
16AA/	16A\	.	16a/	.
16FF#/	16F#\	16f#/L	16f#/	.
16AA/	16A\	16a/	16a/	.
16D/	16d\	16dd/	16dd/	.
16AA/JJ	16A\JJ	16a/JJ	16a/JJ	.
=56	=56	=56	=56	=56
8D/L	8d\L	8f#\L	8dd/L	.
*	*	*clefF4	*	*
8DD/	8F#\	8A\	8d/	.
8DD/J	8F#\J	8A\J	8d/J	.
=57	=57	=57	=57	=57
8DD/	8F#\	8A\	8d/	.
8r	8r	8r	8r	.
8r	8r	8r	8r	.
*-	*-	*-	*-	*-
